assets/bank-tab/Asset/Mobile Banking.svg

<svg width="24" height="24" viewBox="0 0 24 24" fill="none" xmlns="http://www.w3.org/2000/svg">
<path d="M24 0H0V24H24V0Z" fill="#DC2227"/>
<path d="M19.8217 4.17871H4.22937V19.7711H19.8217V4.17871Z" fill="white"/>
<path d="M13.2484 0H10.8535V24H13.2484V0Z" fill="white"/>
<path d="M24 10.8027H0V13.1976H24V10.8027Z" fill="white"/>
<path d="M15.592 8.40723H8.40723V15.5919H15.592V8.40723Z" fill="#1B4683"/>
</svg>

<svg xmlns="http://www.w3.org/2000/svg" width="24" height="24" fill="none" viewBox="0 0 24 24"><path fill="#dc2227" d="M24 0H0v24h24z"/><path fill="#fff" d="M19.822 4.179H4.229V19.77h15.593z"/><path fill="#fff" d="M13.248 0h-2.394v24h2.394z"/><path fill="#fff" d="M24 10.803H0v2.395h24z"/><path fill="#1b4683" d="M15.592 8.407H8.407v7.185h7.185z"/></svg>
